src/basic/800/u25A1-square.svg

<svg width="12" height="16" viewBox="0 0 12 16" fill="none" xmlns="http://www.w3.org/2000/svg">
<path fill-rule="evenodd" clip-rule="evenodd" d="M-5.30481e-06 2H0.499995H11.5H12V2.5V13.5V14H11.5H0.499995H-5.30481e-06V13.5V2.5V2ZM0.999995 3V13H11V3H0.999995Z" fill="black"/>
</svg>

<svg width="12" height="16" viewBox="0 0 12 16" fill="none" xmlns="http://www.w3.org/2000/svg">
<path fill-rule="evenodd" clip-rule="evenodd" d="M-0.00001,2h0.5h11.00001h0.5v0.5v11v0.5h-0.5h-11h-0.5v-0.5v-11zM1,3v10h10.00001v-10z" fill="black"/>
</svg>
